frontend/public/Phone.svg

<svg width="18" height="18" viewBox="0 0 18 18" fill="none" xmlns="http://www.w3.org/2000/svg">
<path d="M3.08197 0.750109C2.76964 0.750413 2.46096 0.815794 2.17523 0.942003C1.8895 1.06821 1.63289 1.25183 1.4223 1.48253C1.2117 1.71323 1.05179 1.98633 0.95209 2.28234C0.852405 2.57833 0.814113 2.89116 0.842227 3.20226C0.842684 3.20617 0.843173 3.21007 0.843692 3.21398C1.10227 5.6489 1.93248 7.98936 3.26361 10.0445V10.046C4.47372 11.9483 6.08773 13.5609 7.99066 14.7702C10.0355 16.095 12.3609 16.9225 14.7831 17.1857C14.788 17.1862 14.7929 17.1867 14.7978 17.1872C15.1097 17.2153 15.4238 17.1777 15.7206 17.0773C16.0175 16.9769 16.2896 16.816 16.5204 16.6042C16.7511 16.3927 16.9355 16.1352 17.061 15.8483V15.8468C17.1861 15.5602 17.2513 15.2502 17.2499 14.9371V12.7091C17.2637 12.1575 17.0733 11.6198 16.7167 11.1988C16.3601 10.778 15.8613 10.5024 15.3149 10.4254C15.3124 10.4249 15.31 10.4244 15.3075 10.4239C14.6441 10.3364 13.9937 10.1744 13.3666 9.9405H13.3651C12.9628 9.78951 12.5255 9.75707 12.1054 9.84675C11.6846 9.93642 11.2979 10.1449 10.9921 10.4473L10.4955 10.9439C9.10711 10.0602 7.93982 8.89295 7.05609 7.5045L7.54975 7.01085L7.55267 7.00792C7.85512 6.70207 8.06354 6.31527 8.15326 5.89464C8.24287 5.47446 8.21041 5.0371 8.05951 4.63487V4.63341C7.82564 4.00637 7.66363 3.356 7.57611 2.69249C7.57563 2.69005 7.57513 2.6876 7.57461 2.68516C7.49826 2.14473 7.22822 1.64945 6.81439 1.29357C6.40057 0.93767 5.87042 0.744745 5.32465 0.750109H3.08197ZM3.08197 2.25011H5.33197C5.33442 2.25012 5.33686 2.25012 5.3393 2.25011C5.52149 2.24832 5.69775 2.31296 5.83588 2.43175C5.97401 2.55054 6.0638 2.71426 6.0893 2.89464V2.88878C6.19167 3.6649 6.38104 4.42584 6.65473 5.15929V5.16222C6.7052 5.2965 6.71687 5.44087 6.68695 5.58117C6.65703 5.72147 6.58713 5.85124 6.48627 5.95323L5.53705 6.90245C5.42096 7.0186 5.3462 7.16964 5.32424 7.33238C5.30228 7.49512 5.33433 7.66056 5.41547 7.80333C6.54985 9.79829 8.20179 11.4502 10.1967 12.5846C10.3395 12.6657 10.5049 12.6978 10.6677 12.6758C10.8304 12.6538 10.9815 12.5791 11.0976 12.463L12.0468 11.5138C12.1488 11.4129 12.2772 11.343 12.4174 11.3131H12.4189C12.5591 11.2832 12.7037 11.2949 12.8379 11.3453H12.8408C13.5742 11.619 14.3352 11.8084 15.1113 11.9108H15.1054C15.2878 11.9365 15.4536 12.028 15.5727 12.1686C15.6918 12.3091 15.7546 12.487 15.75 12.671C15.7499 12.6774 15.7499 12.6837 15.75 12.6901V14.943C15.7504 15.0472 15.7289 15.1504 15.687 15.2462C15.6453 15.3417 15.5837 15.4276 15.5068 15.4982C15.4299 15.5688 15.339 15.6229 15.2402 15.6564C15.1428 15.6893 15.0398 15.7016 14.937 15.693C12.749 15.4538 10.6476 14.7065 8.80077 13.5089C8.79882 13.5074 8.79687 13.5059 8.79492 13.5045C7.07567 12.412 5.61731 10.9551 4.52484 9.23595C4.52388 9.23399 4.5229 9.23204 4.52191 9.2301C3.31928 7.37364 2.57214 5.25964 2.33783 3.06017C2.32971 2.95894 2.34055 2.85767 2.37299 2.76134C2.40623 2.66263 2.45954 2.57163 2.52973 2.49474C2.59992 2.41784 2.68498 2.35663 2.78022 2.31456C2.87503 2.27268 2.97831 2.25041 3.08197 2.25011Z" fill="white"/>
</svg>

<svg xmlns="http://www.w3.org/2000/svg" width="18" height="18" fill="none"><path fill="#fff" d="M3.082.75A2.25 2.25 0 0 0 .844 3.214a15.6 15.6 0 0 0 2.42 6.83v.002A15.4 15.4 0 0 0 7.99 14.77a15.6 15.6 0 0 0 6.807 2.417 2.25 2.25 0 0 0 2.263-1.339v-.001a2.25 2.25 0 0 0 .189-.91V12.71a2.25 2.25 0 0 0-1.935-2.284l-.008-.001a9 9 0 0 1-1.94-.483h-.002a2.25 2.25 0 0 0-2.373.506l-.497.497a11.2 11.2 0 0 1-3.439-3.44l.494-.493.003-.003a2.25 2.25 0 0 0 .507-2.373v-.002a9 9 0 0 1-.485-1.948A2.25 2.25 0 0 0 5.325.75zm0 1.5h2.257a.75.75 0 0 1 .75.645v-.006c.103.776.292 1.537.566 2.27v.003a.75.75 0 0 1-.169.791l-.949.95a.75.75 0 0 0-.122.9 12.75 12.75 0 0 0 4.782 4.782.75.75 0 0 0 .9-.122l.95-.95a.75.75 0 0 1 .37-.2h.002a.75.75 0 0 1 .419.032h.003a10.4 10.4 0 0 0 2.27.566h-.006a.75.75 0 0 1 .645.78v2.252a.75.75 0 0 1-.813.75 14.1 14.1 0 0 1-6.136-2.184l-.006-.005A13.9 13.9 0 0 1 4.522 9.23a14.1 14.1 0 0 1-2.184-6.17.746.746 0 0 1 .744-.81"/></svg>
